X: 1
T:The Ass in the Graveyard
M:6/8
L:1/8
Q:80
C:Composed T. Tully
S:Waltz
K:HP
|: A|
{g}Ad/2c/2{g}d/2e/2{g}d3/2e/2{g}f/2d/2|
{g}e/2d/2c/2e/2{g}d/2B/2{G}A2{g}e/2f/2|
{a}ge/2f/2g/2e/2{g}fd/2e/2{g}f/2d/2|  !
{g}e/2d/2c/2e/2d/2B/2{gcd}c2{G}A|
{g}Ad/2c/2{g}d/2e/2{g}d3/2e/2{g}f/2d/2|
{g}e/2d/2c/2e/2{g}d/2B/2{G}A2{g}e/2f/2|  !
{a}ge/2f/2g/2e/2{g}fd/2e/2{g}f/2d/2|
{g}e/2d/2c/2d/2e/2c/2{g}d2:| |:
{g}f/2g/2|  !
a/2g/2{a}f/2a/2g/2e/2{g}f2{g}e/2a/2|
dcB{G}A2{g}e/2f/2|
{a}ge/2f/2g/2e/2{g}f2d/2e/2{g}f/2d/2|  !
{g}e/2d/2c/2e/2d/2B/2{gcd}c2{G}A|
a/2g/2{a}f/2a/2g/2e/2{g}f2{g}e/2a/2|
dcB{G}A2{g}e/2f/2|  !
{a}ge/2f/2g/2e/2{g}f2d/2e/2{g}f/2d/2|
{g}e/2d/2c/2d/2e/2c/2{g}d2:|
